X: 1
T:Drops of Brandy
M:9/8
L:1/8
Q:80
C:Arranged by T. Tully
S:Jig
K:HP
|: {g}efe{gcd}cAc{g}cAc|
{g}efe{gcd}cAc{Gdc}d2B|
{g}efe{gcd}cAc{g}cAc|  !
{gde}dcd{g}B2c{gde}dcB:| |:
{g}A{d}ceaecaec|
{g}A{d}ceaec{gde}dcB|  !
{g}A{d}ceaecaec|
{gde}dcd{g}B2c{gde}dcB:| |:
e{g}e{A}ec{e}c{G}c{g}cAc|  !
e{g}e{A}ec{e}c{G}c{g}cdB|
e{g}e{A}ec{e}c{G}c{g}cAc|
d{e}d{c}d{g}B2c{gde}dcB:| |:  !
{g}A{d}ce"flick"a3{g}aec|
{g}A{d}ce"flick"a3dcB|
{g}A{d}ce"flick"a3{g}aec|  !
d{e}d{c}d{g}B2c{gde}dcB:|
